X:3371
T:Contradiction Reel, The
R:reel
D:Matt Molloy: Heathery Breeze
Z:id:hn-reel-167
M:C|
K:A
c2cA BE~E2|GABc dfed|c2cA GABc|1 defg afed:|2 defg ~a3z||
|:aA~A2 aAcA|GBEB GBE2|1 aA~A2 aAcA|GBEB cA~A2:|2 agfe fedc|Begb ~a3z||
|:aec'e aec'e|bed'e bed'e|c'ee'e c'ee'e|d'bc'a ea~a2:|
|:ce~e2 cefe|d2cA Be~e2|1 cefe cefe|fege ~a3z:|2 cBce ~f3a|(3gab eg ~a3z||


